X:1
T:Missa Seraphica
T:Anon Based on Tone IV
T:ed. Crookall
T:Missa Seraphica
T:Kyrie eleison
C:Anon
C:Based on Tone IV
Z:ed. Crookall
%%score [ ( 1 2 ) ( 3 4 ) ]
L:1/8
M:4/2
K:C
V:1 treble nm="P1" snm="S A"
V:2 treble 
V:3 bass nm="P2" snm="T B"
V:4 bass 
V:1
!mp! A8 G4 A4 | B12 G4 | c4 B4 A4 G4 | E16 | E8 G4 A4 | B8 G8 | c4 B4 A4 G4 | E16 | F8 E4 D4 | %9
w: Ky- ri- *|e e-|le- * * i-|son,|Ky- * ri-|e e-|le- * * i-|son,|Ky- * ri-|
 E8 A8 | E12 E4 | E16 ||!mf! E8 G4 A4 | B4 B4 A8 | A8 G4 A4 | B4 B4 c8 | c8 d8 | A8 B8 | E12 ^F4 | %19
w: e e-|le- i-|son.|Chri- ste e-|le- i- son,|Chri- ste e-|le- i- son,|Chri- *|ste e-|le- i-|
!mp! ^G16 || A8 =G4 A4 | B12 G4 | c4 B4 A4 G4 | E16 | E8 G4 A4 | B8 G8 | c4 B4 A4 G4 | E16 | %28
w: son.|Ky- ri- *|e e-|le- * * i-|son,|Ky- * ri-|e e-|le- * * i-|son,|
 F8 E4 D4 | E8 A8 | E12 E4 | E16 |] %32
w: Ky- * ri-|e e-|le- i-|son.|
V:2
 E8 E8 | G12 G4 | G8 F4 D4 | E16 | E12 D4 | D8 D4 G4 | G8 F4 D4 | D8 ^C8 | D8 =C4 D4 | C8 D8 | %10
 E4 C4 B,4 A,4 | B,16 || E8 E4 E4 | E4 E4 ^C4 E4 | ^F8 E4 D4 | D4 D4 =F8 | G8 F8 | E8 D8 | C8 E8 | %19
 E16 || E8 E8 | G12 G4 | G8 F4 D4 | E16 | E12 D4 | D8 D4 G4 | G8 F4 D4 | D8 ^C8 | D8 =C4 D4 | %29
 C8 D8 | E4 C4 B,4 A,4 | B,16 |] %32
V:3
 C8 C8 | D12 B,4 | C12 B,4 | C16 | C8 B,4 A,4 | G,4 A,4 B,8 | C12 B,4 | A,16 | A,12 A,4 | A,8 A,8 | %10
 A,8 ^G,4 ^F,4 | ^G,16 || E,8 B,4 A,4 | A,4 ^G,4 A,4 ^C4 | D8 B,4 A,4 | G,4 G,4 A,8 | C8 A,4 B,4 | %17
 C4 A,8 ^G,4 | A,8 C8 | B,16 || C8 C8 | D12 B,4 | C12 B,4 | C16 | C8 B,4 A,4 | G,4 A,4 B,8 | %26
 C12 B,4 | A,16 | A,12 A,4 | A,8 A,8 | A,8 ^G,4 ^F,4 | ^G,16 |] %32
V:4
 A,8 C4 A,4 | G,12 G,4 | E,8 F,4 G,4 | C,16 | A,8 E,4 ^F,4 | G,8 G,4 =F,4 | E,8 F,4 G,4 | A,16 | %8
 D,8 E,4 F,4 | E,8 F,8 | E,12 E,4 | E,16 || E,8 E,4 E,4 | E,4 E,4 A,8 | D,8 E,4 ^F,4 | %15
 G,4 G,4 =F,8 | E,8 D,8 | C,8 B,,8 | A,,8 A,8 | E,16 || A,8 C4 A,4 | G,12 G,4 | E,8 F,4 G,4 | %23
 C,16 | A,8 E,4 ^F,4 | G,8 G,4 =F,4 | E,8 F,4 G,4 | A,16 | D,8 E,4 F,4 | E,8 F,8 | E,12 E,4 | %31
 E,16 |] %32

